front/public/static/landing/compare/langdock.svg

<svg fill="none" height="22" viewBox="0 0 112 22" width="112" xmlns="http://www.w3.org/2000/svg" xmlns:xlink="http://www.w3.org/1999/xlink"><clipPath id="a"><path d="m0 0h111.833v22h-111.833z"/></clipPath><g clip-path="url(#a)"><path d="m11.2067 11.9361c.2022-.3461.201-.7744-.0032-1.1193l-3.32809-5.61873-2.7809-4.660441c-.42945-.719693-1.47287-.716739-1.89823.00537l-2.388324 4.054471c-.203577.34559-.203576.77444.000001 1.12004l3.003923 5.09949c.2031.3448.20361.7725.00134 1.1178l-2.3658 4.0383c-.43093.7355.09953 1.6611.95204 1.6611h4.8429c.39206 0 .75467-.2081.95254-.5465z" fill="#4469fc"/><g fill="#1a1c21"><path d="m18.1372 17.5056v-15.13875h3.2006v12.49985h6.4902v2.6389z"/><path d="m32.2928 17.7199c-.7244 0-1.3699-.1256-1.9367-.3769-.5667-.2563-1.0151-.6333-1.3453-1.131-.3252-.5027-.4879-1.1285-.4879-1.8775 0-.6309.1158-1.1606.3475-1.5894.2316-.4287.5469-.7736.9461-1.0348s.8525-.4583 1.3601-.5914c.5125-.133 1.0497-.2267 1.6115-.2809.6604-.069 1.1926-.133 1.5967-.1922.404-.064.6973-.1577.8796-.2809s.2735-.3055.2735-.54695v-.04437c0-.46814-.1478-.83036-.4436-1.08661-.2907-.25626-.7046-.38438-1.2418-.38438-.5666 0-1.0176.12566-1.3527.37699-.3351.2464-.5569.55684-.6653.93139l-2.9124-.23659c.1478-.68988.4386-1.28616.8723-1.78881.4336-.50758.9929-.89689 1.6779-1.16793.6899-.27596 1.4882-.41395 2.395-.41395.6308 0 1.2345.07392 1.8111.22176.5814.14784 1.0964.37699 1.5448.68746.4534.31045.8107.70962 1.0719 1.19748.2611.48295.3918 1.06195.3918 1.73708v7.65813h-2.9864v-1.5745h-.0887c-.1823.3548-.4262.6677-.7318.9388-.3055.2661-.6726.4755-1.1014.6283-.4288.1478-.9239.2217-1.4858.2217zm.9018-2.1732c.4632 0 .8723-.0912 1.2271-.2735.3548-.1873.6332-.4386.8353-.7539.202-.3155.3031-.6728.3031-1.0719v-1.2049c-.0986.064-.2341.1232-.4066.1774-.1675.0493-.3573.0961-.5692.1404-.2119.0395-.4238.0764-.6357.111-.2119.0295-.4041.0566-.5766.0813-.3696.0541-.6923.1404-.9683.2587-.276.1182-.4904.2783-.6431.4805-.1528.1971-.2292.4435-.2292.7392 0 .4287.1553.7564.4657.9831.3154.2217.7146.3326 1.1975.3326z"/><path d="m43.4474 10.9415v6.5641h-3.1491v-11.35407h3.0012v2.00322h.133c.2514-.66035.6727-1.18271 1.2641-1.56709.5913-.38931 1.3084-.58397 2.151-.58397.7885 0 1.476.17248 2.0624.51744.5864.34495 1.0422.83775 1.3674 1.47838.3254.63571.488 1.39467.488 2.27669v7.2294h-3.149v-6.6676c.0049-.6948-.1725-1.23693-.5323-1.62624-.3597-.3942-.8549-.59131-1.4857-.59131-.4239 0-.7983.09116-1.1236.27349-.3203.18234-.5717.44844-.754.79834-.1774.34492-.2686.76142-.2734 1.24922z"/><path d="m57.5288 21.9999c-1.0202 0-1.8949-.1405-2.6242-.4214-.7244-.2759-1.301-.6529-1.7297-1.131-.4288-.4779-.7072-1.0151-.8353-1.6114l2.9124-.3918c.0887.2267.2291.4387.4213.6357.1923.1971.446.3549.7614.4731.3203.1232.7096.1848 1.1679.1848.6851 0 1.2493-.1675 1.6928-.5027.4484-.3301.6727-.8845.6727-1.6631v-2.0771h-.1331c-.138.3154-.3449.6135-.6209.8944s-.6308.51-1.0645.6875c-.4337.1773-.951.2661-1.5523.2661-.8525 0-1.6287-.1972-2.3284-.5914-.6949-.3992-1.2493-1.0078-1.6632-1.8258-.409-.823-.6135-1.8628-.6135-3.1194 0-1.2862.2094-2.36052.6283-3.22291.4188-.8624.9757-1.50797 1.6705-1.9367.6998-.42873 1.4661-.6431 2.2989-.6431.6357 0 1.1679.10842 1.5967.32525.4288.2119.7737.47801 1.0349.79833.2661.31539.4706.62585.6135.93139h.1183v-1.90713h3.1268v11.46487c0 .9659-.2366 1.7741-.7097 2.4246s-1.1285 1.1384-1.9662 1.4636c-.8328.3302-1.7913.4953-2.8754.4953zm.0664-7.0224c.5077 0 .9364-.1257 1.2863-.3769.3547-.2563.6258-.621.8131-1.0941.1922-.478.2883-1.0496.2883-1.7149s-.0937-1.2419-.2809-1.7297c-.1873-.49282-.4583-.87471-.8132-1.14578-.3548-.27103-.7859-.40655-1.2936-.40655-.5173 0-.9535.14044-1.3083.42133-.3549.276-.6234.66036-.8058 1.1532-.1823.4928-.2734 1.0619-.2734 1.7075 0 .6554.0911 1.2221.2734 1.7002.1873.4731.4559.8402.8058 1.1013.3548.2563.791.3844 1.3083.3844z"/><path d="m68.9382 17.6904c-.8624 0-1.6435-.2218-2.3433-.6653-.6949-.4485-1.2468-1.1064-1.6558-1.9736-.4041-.8723-.6061-1.9417-.6061-3.2082 0-1.3009.2095-2.38267.6283-3.24504.4189-.86731.9758-1.51534 1.6706-1.94408.6998-.43366 1.466-.65049 2.2989-.65049.6357 0 1.1655.10841 1.5893.32524.4287.21191.7736.47802 1.0349.79834.2661.31539.4681.62585.6061.93139h.096v-5.69181h3.1416v15.13875h-3.1046v-1.8184h-.133c-.1479.3153-.3573.6283-.6283.9387-.2661.3056-.6135.5593-1.0424.7614-.4237.2021-.9412.3031-1.5522.3031zm.9978-2.5059c.5077 0 .9364-.138 1.2863-.414.3548-.2809.6258-.6726.8131-1.1752.1922-.5027.2883-1.0916.2883-1.7667 0-.6752-.0936-1.2616-.2809-1.7593-.1873-.49775-.4583-.88211-.8132-1.15319-.3547-.27103-.7859-.40655-1.2936-.40655-.5173 0-.9535.14045-1.3083.42134-.3548.28086-.6233.67017-.8057 1.1679-.1823.4978-.2735 1.0743-.2735 1.7298 0 .6603.0912 1.2442.2735 1.7518.1872.5027.4558.897.8057 1.1828.3548.2809.791.4213 1.3083.4213z"/><path d="m82.2832 17.7273c-1.1482 0-2.1412-.2439-2.979-.7318-.8329-.4928-1.4759-1.1778-1.9293-2.0549-.4534-.8821-.6801-1.9047-.6801-3.0677 0-1.1728.2267-2.19786.6801-3.07505.4534-.88211 1.0964-1.56709 1.9293-2.05497.8378-.49279 1.8308-.73919 2.979-.73919s2.1387.2464 2.9716.73919c.8377.48788 1.4832 1.17286 1.9366 2.05497.4534.87719.6801 1.90225.6801 3.07505 0 1.163-.2267 2.1856-.6801 3.0677-.4534.8771-1.0989 1.5621-1.9366 2.0549-.8329.4879-1.8234.7318-2.9716.7318zm.0148-2.4393c.5223 0 .9584-.1479 1.3083-.4435.3499-.3007.6135-.7097.7909-1.2271.1824-.5174.2735-1.1064.2735-1.7666 0-.6604-.0911-1.2493-.2735-1.7667-.1774-.5175-.441-.92651-.7909-1.22712-.3499-.3006-.786-.45091-1.3083-.45091-.5273 0-.9709.15031-1.3306.45091-.3548.30061-.6234.70962-.8057 1.22712-.1774.5174-.2662 1.1063-.2662 1.7667 0 .6602.0888 1.2492.2662 1.7666.1823.5174.4509.9264.8057 1.2271.3597.2956.8033.4435 1.3306.4435z"/><path d="m94.2181 17.7273c-1.1632 0-2.1633-.2464-3.0015-.7392-.8328-.4977-1.4735-1.1876-1.9219-2.0697-.4436-.8821-.6653-1.8972-.6653-3.0455 0-1.163.2242-2.1831.6726-3.06027.4534-.8821 1.0966-1.56955 1.9293-2.06235.8327-.49772 1.8236-.74659 2.9712-.74659.991 0 1.8581.17987 2.6025.53962.7443.35973 1.3328.86485 1.7664 1.51535.4336.65048.6728 1.41435.7168 2.29154h-2.9709c-.0843-.56671-.3062-1.02257-.6655-1.36755-.3548-.34988-.8204-.52483-1.397-.52483-.4877 0-.9139.13305-1.2788.39916-.3602.26119-.6407.64307-.8424 1.14582-.2026.5026-.3034 1.1112-.3034 1.8258 0 .7243.0981 1.3403.2952 1.848.2026.5075.4858.8944.8506 1.1605.3649.2661.7911.3992 1.2788.3992.3593 0 .682-.074.968-.2219.2906-.1477.5298-.3621.7168-.643.1925-.2858.3181-.6284.3777-1.0275h2.9709c-.0486.8674-.2851 1.6311-.7095 2.2915-.4189.6554-.9973 1.1679-1.7371 1.5375-.7388.3696-1.6133.5544-2.6235.5544z"/><path d="m103.324 14.2383.008-3.7773h.458l3.637-4.30947h3.615l-4.886 5.70657h-.747zm-2.852 3.2673v-15.13875h3.148v15.13875zm7.096 0-3.342-4.9453 2.1-2.2249 4.93 7.1702z"/></g></g></svg>

<svg width="112" height="22" viewBox="0 0 112 22" fill="none" xmlns="http://www.w3.org/2000/svg">
<g clip-path="url(#clip0_107_303)">
<path d="M11.2067 11.9361C11.4089 11.59 11.4077 11.1617 11.2035 10.8168L7.87541 5.19807L5.09451 0.537629C4.66506 -0.182064 3.62164 -0.17911 3.19628 0.542999L0.807956 4.59747C0.604379 4.94306 0.60438 5.37191 0.807957 5.71751L3.81188 10.817C4.01498 11.1618 4.01549 11.5895 3.81322 11.9348L1.44742 15.9731C1.01649 16.7086 1.54695 17.6342 2.39946 17.6342H7.24236C7.63442 17.6342 7.99703 17.4261 8.1949 17.0877L11.2067 11.9361Z" fill="#4469FC"/>
<path d="M18.1372 17.5056V2.36685H21.3378V14.8667H27.828V17.5056H18.1372Z" fill="#1A1C21"/>
<path d="M32.2928 17.7199C31.5684 17.7199 30.9229 17.5943 30.3561 17.343C29.7894 17.0867 29.341 16.7097 29.0108 16.212C28.6856 15.7093 28.5229 15.0835 28.5229 14.3345C28.5229 13.7036 28.6387 13.1739 28.8704 12.7451C29.102 12.3164 29.4173 11.9715 29.8165 11.7103C30.2157 11.4491 30.669 11.252 31.1766 11.1189C31.6891 10.9859 32.2263 10.8922 32.7881 10.838C33.4485 10.769 33.9807 10.705 34.3848 10.6458C34.7888 10.5818 35.0821 10.4881 35.2644 10.3649C35.4467 10.2417 35.5379 10.0594 35.5379 9.81795V9.77358C35.5379 9.30544 35.3901 8.94322 35.0943 8.68697C34.8036 8.43071 34.3897 8.30259 33.8525 8.30259C33.2859 8.30259 32.8349 8.42825 32.4998 8.67958C32.1647 8.92598 31.9429 9.23642 31.8345 9.61097L28.9221 9.37438C29.0699 8.6845 29.3607 8.08822 29.7944 7.58557C30.228 7.07799 30.7873 6.68868 31.4723 6.41764C32.1622 6.14168 32.9605 6.00369 33.8673 6.00369C34.4981 6.00369 35.1018 6.07761 35.6784 6.22545C36.2598 6.37329 36.7748 6.60244 37.2232 6.91291C37.6766 7.22336 38.0339 7.62253 38.2951 8.11039C38.5562 8.59334 38.6869 9.17234 38.6869 9.84747V17.5056H35.7005V15.9311H35.6118C35.4295 16.2859 35.1856 16.5988 34.88 16.8699C34.5745 17.136 34.2074 17.3454 33.7786 17.4982C33.3498 17.646 32.8547 17.7199 32.2928 17.7199ZM33.1946 15.5467C33.6578 15.5467 34.0669 15.4555 34.4217 15.2732C34.7765 15.0859 35.0549 14.8346 35.257 14.5193C35.459 14.2038 35.5601 13.8465 35.5601 13.4474V12.2425C35.4615 12.3065 35.326 12.3657 35.1535 12.4199C34.986 12.4692 34.7962 12.516 34.5843 12.5603C34.3724 12.5998 34.1605 12.6367 33.9486 12.6713C33.7367 12.7008 33.5445 12.7279 33.372 12.7526C33.0024 12.8067 32.6797 12.893 32.4037 13.0113C32.1277 13.1295 31.9133 13.2896 31.7606 13.4918C31.6078 13.6889 31.5314 13.9353 31.5314 14.231C31.5314 14.6597 31.6867 14.9874 31.9971 15.2141C32.3125 15.4358 32.7117 15.5467 33.1946 15.5467Z" fill="#1A1C21"/>
<path d="M43.4474 10.9415V17.5056H40.2983V6.15153H43.2995V8.15475H43.4325C43.6839 7.4944 44.1052 6.97204 44.6966 6.58766C45.2879 6.19835 46.005 6.00369 46.8476 6.00369C47.6361 6.00369 48.3236 6.17617 48.91 6.52113C49.4964 6.86608 49.9522 7.35888 50.2774 7.99951C50.6028 8.63522 50.7654 9.39418 50.7654 10.2762V17.5056H47.6164V10.838C47.6213 10.1432 47.4439 9.60107 47.0841 9.21176C46.7244 8.81756 46.2292 8.62045 45.5984 8.62045C45.1745 8.62045 44.8001 8.71161 44.4748 8.89394C44.1545 9.07628 43.9031 9.34238 43.7208 9.69228C43.5434 10.0372 43.4522 10.4537 43.4474 10.9415Z" fill="#1A1C21"/>
<path d="M57.5288 21.9999C56.5086 21.9999 55.6339 21.8594 54.9046 21.5785C54.1802 21.3026 53.6036 20.9256 53.1749 20.4475C52.7461 19.9696 52.4677 19.4324 52.3396 18.8361L55.252 18.4443C55.3407 18.671 55.4811 18.883 55.6733 19.08C55.8656 19.2771 56.1193 19.4349 56.4347 19.5531C56.755 19.6763 57.1443 19.7379 57.6026 19.7379C58.2877 19.7379 58.8519 19.5704 59.2954 19.2352C59.7438 18.9051 59.9681 18.3507 59.9681 17.5721V15.495H59.835C59.697 15.8104 59.4901 16.1085 59.2141 16.3894C58.9381 16.6703 58.5833 16.8994 58.1496 17.0769C57.7159 17.2542 57.1986 17.343 56.5973 17.343C55.7448 17.343 54.9686 17.1458 54.2689 16.7516C53.574 16.3524 53.0196 15.7438 52.6057 14.9258C52.1967 14.1028 51.9922 13.063 51.9922 11.8064C51.9922 10.5202 52.2016 9.44588 52.6205 8.58349C53.0393 7.72109 53.5962 7.07552 54.291 6.64679C54.9908 6.21806 55.7571 6.00369 56.5899 6.00369C57.2256 6.00369 57.7578 6.11211 58.1866 6.32894C58.6154 6.54084 58.9603 6.80695 59.2215 7.12727C59.4876 7.44266 59.6921 7.75312 59.835 8.05866H59.9533V6.15153H63.0801V17.6164C63.0801 18.5823 62.8435 19.3905 62.3704 20.041C61.8973 20.6915 61.2419 21.1794 60.4042 21.5046C59.5714 21.8348 58.6129 21.9999 57.5288 21.9999ZM57.5952 14.9775C58.1029 14.9775 58.5316 14.8518 58.8815 14.6006C59.2362 14.3443 59.5073 13.9796 59.6946 13.5065C59.8868 13.0285 59.9829 12.4569 59.9829 11.7916C59.9829 11.1263 59.8892 10.5497 59.702 10.0619C59.5147 9.56908 59.2437 9.18719 58.8888 8.91612C58.534 8.64509 58.1029 8.50957 57.5952 8.50957C57.0779 8.50957 56.6417 8.65001 56.2869 8.9309C55.932 9.2069 55.6635 9.59126 55.4811 10.0841C55.2988 10.5769 55.2077 11.146 55.2077 11.7916C55.2077 12.447 55.2988 13.0137 55.4811 13.4918C55.6684 13.9649 55.937 14.332 56.2869 14.5931C56.6417 14.8494 57.0779 14.9775 57.5952 14.9775Z" fill="#1A1C21"/>
<path d="M68.9382 17.6904C68.0758 17.6904 67.2947 17.4686 66.5949 17.0251C65.9 16.5766 65.3481 15.9187 64.9391 15.0515C64.535 14.1792 64.333 13.1098 64.333 11.8433C64.333 10.5424 64.5425 9.46063 64.9613 8.59826C65.3802 7.73095 65.9371 7.08292 66.6319 6.65418C67.3317 6.22052 68.0979 6.00369 68.9308 6.00369C69.5665 6.00369 70.0963 6.1121 70.5201 6.32893C70.9488 6.54084 71.2937 6.80695 71.555 7.12727C71.8211 7.44266 72.0231 7.75312 72.1611 8.05866H72.2571V2.36685H75.3987V17.5056H72.2941V15.6872H72.1611C72.0132 16.0025 71.8038 16.3155 71.5328 16.6259C71.2667 16.9315 70.9193 17.1852 70.4904 17.3873C70.0667 17.5894 69.5492 17.6904 68.9382 17.6904ZM69.936 15.1845C70.4437 15.1845 70.8724 15.0465 71.2223 14.7705C71.5771 14.4896 71.8481 14.0979 72.0354 13.5953C72.2276 13.0926 72.3237 12.5037 72.3237 11.8286C72.3237 11.1534 72.2301 10.567 72.0428 10.0693C71.8555 9.57155 71.5845 9.18719 71.2296 8.91611C70.8749 8.64508 70.4437 8.50956 69.936 8.50956C69.4187 8.50956 68.9825 8.65001 68.6277 8.9309C68.2729 9.21176 68.0044 9.60107 67.822 10.0988C67.6397 10.5966 67.5485 11.1731 67.5485 11.8286C67.5485 12.4889 67.6397 13.0728 67.822 13.5804C68.0092 14.0831 68.2778 14.4774 68.6277 14.7632C68.9825 15.0441 69.4187 15.1845 69.936 15.1845Z" fill="#1A1C21"/>
<path d="M82.2832 17.7273C81.135 17.7273 80.142 17.4834 79.3042 16.9955C78.4713 16.5027 77.8283 15.8177 77.3749 14.9406C76.9215 14.0585 76.6948 13.0359 76.6948 11.8729C76.6948 10.7001 76.9215 9.67504 77.3749 8.79785C77.8283 7.91574 78.4713 7.23076 79.3042 6.74288C80.142 6.25009 81.135 6.00369 82.2832 6.00369C83.4314 6.00369 84.4219 6.25009 85.2548 6.74288C86.0925 7.23076 86.738 7.91574 87.1914 8.79785C87.6448 9.67504 87.8715 10.7001 87.8715 11.8729C87.8715 13.0359 87.6448 14.0585 87.1914 14.9406C86.738 15.8177 86.0925 16.5027 85.2548 16.9955C84.4219 17.4834 83.4314 17.7273 82.2832 17.7273ZM82.298 15.288C82.8203 15.288 83.2564 15.1401 83.6063 14.8445C83.9562 14.5438 84.2198 14.1348 84.3972 13.6174C84.5796 13.1 84.6707 12.511 84.6707 11.8508C84.6707 11.1904 84.5796 10.6015 84.3972 10.0841C84.2198 9.5666 83.9562 9.15759 83.6063 8.85698C83.2564 8.55638 82.8203 8.40607 82.298 8.40607C81.7707 8.40607 81.3271 8.55638 80.9674 8.85698C80.6126 9.15759 80.344 9.5666 80.1617 10.0841C79.9843 10.6015 79.8955 11.1904 79.8955 11.8508C79.8955 12.511 79.9843 13.1 80.1617 13.6174C80.344 14.1348 80.6126 14.5438 80.9674 14.8445C81.3271 15.1401 81.7707 15.288 82.298 15.288Z" fill="#1A1C21"/>
<path d="M94.2181 17.7273C93.0549 17.7273 92.0548 17.4809 91.2166 16.9881C90.3838 16.4904 89.7431 15.8005 89.2947 14.9184C88.8511 14.0363 88.6294 13.0212 88.6294 11.8729C88.6294 10.7099 88.8536 9.6898 89.302 8.81263C89.7554 7.93053 90.3986 7.24308 91.2313 6.75028C92.064 6.25256 93.0549 6.00369 94.2025 6.00369C95.1935 6.00369 96.0606 6.18356 96.805 6.54331C97.5493 6.90304 98.1378 7.40816 98.5714 8.05866C99.005 8.70914 99.2442 9.47301 99.2882 10.3502H96.3173C96.233 9.78349 96.0111 9.32763 95.6518 8.98265C95.297 8.63277 94.8314 8.45782 94.2548 8.45782C93.7671 8.45782 93.3409 8.59087 92.976 8.85698C92.6158 9.11817 92.3353 9.50005 92.1336 10.0028C91.931 10.5054 91.8302 11.114 91.8302 11.8286C91.8302 12.5529 91.9283 13.1689 92.1254 13.6766C92.328 14.1841 92.6112 14.571 92.976 14.8371C93.3409 15.1032 93.7671 15.2363 94.2548 15.2363C94.6141 15.2363 94.9368 15.1623 95.2228 15.0144C95.5134 14.8667 95.7526 14.6523 95.9396 14.3714C96.1321 14.0856 96.2577 13.743 96.3173 13.3439H99.2882C99.2396 14.2113 99.0031 14.975 98.5787 15.6354C98.1598 16.2908 97.5814 16.8033 96.8416 17.1729C96.1028 17.5425 95.2283 17.7273 94.2181 17.7273Z" fill="#1A1C21"/>
<path d="M103.324 14.2383L103.332 10.461H103.79L107.427 6.15153H111.042L106.156 11.8581H105.409L103.324 14.2383ZM100.472 17.5056V2.36685H103.62V17.5056H100.472ZM107.568 17.5056L104.226 12.5603L106.326 10.3354L111.256 17.5056H107.568Z" fill="#1A1C21"/>
</g>
<defs>
<clipPath id="clip0_107_303">
<rect width="111.833" height="22" fill="white"/>
</clipPath>
</defs>
</svg>
